Papirus/16x16/apps/gwenview.svg

<!-- Created with Inkscape (http://www.inkscape.org/) -->
<svg width="16" height="16" version="1.1" viewBox="0 0 16 16" xmlns="http://www.w3.org/2000/svg">
 <path d="m8 2c-4.4182629 0-7.65078 3.2876826-8 6 0.34922 2.712317 3.581736 6 8 6 4.418263 0 7.650778-3.287683 8-6-0.349222-2.7123174-3.581737-6-8-6z" style="fill:#d35297"/>
 <circle cx="8" cy="8" r="5" style="fill:#e4e4e4"/>
 <path d="m10 5a1 1 0 0 0-1 1 1 1 0 0 0 1 1 1 1 0 0 0 1-1 1 1 0 0 0-1-1zm-3.875 2-1.6503906 2.5c0.528482 1.494791 1.9399336 2.495709 3.5253906 2.5 1.585457-0.0044 2.996908-1.005209 3.525391-2.5h-1.025391l-1.25-1.25-1.25 1.25z" style="opacity:.2"/>
</svg>

<svg xmlns="http://www.w3.org/2000/svg" width="16" height="16" version="1.1">
 <path style="fill:#d35297" d="m8 2c-4.42 0-7.65 3.29-8 6 0.35 2.71 3.58 6 8 6 4.42 0 7.65-3.29 8-6-0.35-2.71-3.58-6-8-6z"/>
 <circle style="fill:#e4e4e4" cx="8" cy="8" r="5"/>
 <path style="fill:#b6b6b6" d="M 10,5 A 1,1 0 0 0 9,6 1,1 0 0 0 10,7 1,1 0 0 0 11,6 1,1 0 0 0 10,5 Z M 6.12,7 4.47,9.5 C 5,11 6.41,12 8,12 9.59,12 11,11 11.53,9.5 H 10.5 L 9.25,8.25 8,9.5 Z"/>
</svg>
